X: 6
T:The Merry Blacksmith
T:Paddy On The Railroad
M:4/4
F:http://blackrosetheband.googlepages.com/ABCTUNES.ABC May 2009
L:1/8
R:reel
K:Dmaj
"D"d2dA BAFA|ABdA BAFA|ABde "Em"fded|"G"Beed "A"egfe|
"D"d3A BAFA-|ABdA BAFA-|ABde "G"fd"A"ec|"D"dBAF D2 D2:|
|:"D"a2ag f2fe|d2dA BAFA-|ABde "Em"fded|"G"Beed "A"egfg|
"D"abag fgfe|dcdA BAFA|ABde "G"fd"A"ec|"D"dBAF D2 D2:|

